public/assets/icons/instagram.svg

<svg width="23" height="23" viewBox="0 0 23 23" fill="none" xmlns="http://www.w3.org/2000/svg">
<path fill-rule="evenodd" clip-rule="evenodd" d="M11.4584 17.7083C14.9101 17.7083 17.7084 14.9101 17.7084 11.4583C17.7084 8.00656 14.9101 5.20834 11.4584 5.20834C8.00659 5.20834 5.20837 8.00656 5.20837 11.4583C5.20837 14.9101 8.00659 17.7083 11.4584 17.7083ZM11.4584 15.625C13.7595 15.625 15.625 13.7595 15.625 11.4583C15.625 9.15716 13.7595 7.29168 11.4584 7.29168C9.15719 7.29168 7.29171 9.15716 7.29171 11.4583C7.29171 13.7595 9.15719 15.625 11.4584 15.625Z" fill="#450505"/>
<path fill-rule="evenodd" clip-rule="evenodd" d="M0.681208 3.41256C0 4.74951 0 6.49968 0 10V12.9167C0 16.417 0 18.1672 0.681208 19.5041C1.28042 20.6801 2.23654 21.6362 3.41256 22.2354C4.74951 22.9167 6.49968 22.9167 10 22.9167H12.9167C16.417 22.9167 18.1672 22.9167 19.5041 22.2354C20.6801 21.6362 21.6362 20.6801 22.2354 19.5041C22.9167 18.1672 22.9167 16.417 22.9167 12.9167V10C22.9167 6.49968 22.9167 4.74951 22.2354 3.41256C21.6362 2.23654 20.6801 1.28042 19.5041 0.681208C18.1672 0 16.417 0 12.9167 0H10C6.49968 0 4.74951 0 3.41256 0.681208C2.23654 1.28042 1.28042 2.23654 0.681208 3.41256ZM12.9167 2.08333H10C8.21546 2.08333 7.00234 2.08496 6.06467 2.16156C5.15129 2.23619 4.68421 2.37145 4.35838 2.53747C3.57436 2.93695 2.93695 3.57436 2.53747 4.35838C2.37145 4.68421 2.23619 5.15129 2.16156 6.06467C2.08496 7.00234 2.08333 8.21546 2.08333 10V12.9167C2.08333 14.7012 2.08496 15.9143 2.16156 16.852C2.23619 17.7654 2.37145 18.2325 2.53747 18.5583C2.93695 19.3423 3.57436 19.9797 4.35838 20.3792C4.68421 20.5452 5.15129 20.6805 6.06467 20.7551C7.00234 20.8317 8.21546 20.8333 10 20.8333H12.9167C14.7012 20.8333 15.9143 20.8317 16.852 20.7551C17.7654 20.6805 18.2325 20.5452 18.5583 20.3792C19.3423 19.9797 19.9797 19.3423 20.3792 18.5583C20.5452 18.2325 20.6805 17.7654 20.7551 16.852C20.8317 15.9143 20.8333 14.7012 20.8333 12.9167V10C20.8333 8.21546 20.8317 7.00234 20.7551 6.06467C20.6805 5.15129 20.5452 4.68421 20.3792 4.35838C19.9797 3.57436 19.3423 2.93695 18.5583 2.53747C18.2325 2.37145 17.7654 2.23619 16.852 2.16156C15.9143 2.08496 14.7012 2.08333 12.9167 2.08333Z" fill="#450505"/>
<path d="M11.5417 10.5C10.9664 10.5 10.5 10.9664 10.5 11.5417C10.5 12.117 10.9664 12.5833 11.5417 12.5833C12.117 12.5833 12.5833 12.117 12.5833 11.5417C12.5833 10.9664 12.117 10.5 11.5417 10.5Z" fill="#450505"/>
</svg>

<svg xmlns="http://www.w3.org/2000/svg" width="23" height="23" fill="none"><path fill="#450505" fill-rule="evenodd" d="M11.458 17.708a6.25 6.25 0 1 0 0-12.5 6.25 6.25 0 0 0 0 12.5m0-2.083a4.167 4.167 0 1 0 0-8.333 4.167 4.167 0 0 0 0 8.333" clip-rule="evenodd"/><path fill="#450505" fill-rule="evenodd" d="M.681 3.413C0 4.75 0 6.5 0 10v2.917c0 3.5 0 5.25.681 6.587a6.25 6.25 0 0 0 2.732 2.731c1.337.682 3.087.682 6.587.682h2.917c3.5 0 5.25 0 6.587-.682a6.25 6.25 0 0 0 2.731-2.73c.682-1.338.682-3.088.682-6.588V10c0-3.5 0-5.25-.682-6.587A6.25 6.25 0 0 0 19.505.68C18.166 0 16.416 0 12.916 0H10C6.5 0 4.75 0 3.413.681A6.25 6.25 0 0 0 .68 3.413m12.236-1.33H10c-1.785 0-2.998.002-3.935.079-.914.074-1.38.21-1.707.375a4.17 4.17 0 0 0-1.82 1.821c-.167.326-.302.793-.376 1.707-.077.937-.079 2.15-.079 3.935v2.917c0 1.784.002 2.997.079 3.935.074.913.21 1.38.375 1.706a4.17 4.17 0 0 0 1.821 1.821c.326.166.793.301 1.707.376.937.077 2.15.078 3.935.078h2.917c1.784 0 2.997-.001 3.935-.078.913-.075 1.38-.21 1.706-.376a4.17 4.17 0 0 0 1.821-1.82c.166-.326.301-.794.376-1.707.077-.938.078-2.15.078-3.935V10c0-1.785-.001-2.998-.078-3.935-.075-.914-.21-1.38-.376-1.707a4.17 4.17 0 0 0-1.82-1.82c-.326-.167-.794-.302-1.707-.376-.938-.077-2.15-.079-3.935-.079" clip-rule="evenodd"/><path fill="#450505" d="M11.542 10.5a1.042 1.042 0 1 0 0 2.083 1.042 1.042 0 0 0 0-2.083"/></svg>
